svgs/regular/border-all.svg

<svg xmlns="http://www.w3.org/2000/svg" viewBox="0 0 448 512"><!-- Font Awesome Pro 6.0.0-alpha2 by @fontawesome - https://fontawesome.com License - https://fontawesome.com/license (Commercial License) --><path d="M384 32H64C28.801 32 0 60.799 0 96V416C0 451.199 28.801 480 64 480H384C419.199 480 448 451.199 448 416V96C448 60.799 419.199 32 384 32ZM200 432H64C55.164 432 48 424.836 48 416V280H200V432ZM200 232H48V96C48 87.162 55.164 80 64 80H200V232ZM400 416C400 424.836 392.836 432 384 432H248V280H400V416ZM400 232H248V80H384C392.836 80 400 87.162 400 96V232Z"/></svg>

<svg xmlns="http://www.w3.org/2000/svg" viewBox="0 0 448 512"><!--! Font Awesome Pro 6.0.0-alpha3 by @fontawesome - https://fontawesome.com License - https://fontawesome.com/license (Commercial License) --><path d="M384 32H64C28.8 32 0 60.8 0 96v320c0 35.2 28.8 64 64 64h320c35.2 0 64-28.8 64-64V96C448 60.8 419.2 32 384 32zM200 432H64c-8.836 0-16-7.164-16-16V280h152V432zM200 232H48V96c0-8.838 7.164-16 16-16h136V232zM400 416c0 8.836-7.164 16-16 16h-136V280h152V416zM400 232h-152V80H384c8.836 0 16 7.162 16 16V232z"/></svg>
